!!!OTL: Tom's Gone to Hilo
!!!ARE: Shanty
!!!AMD: Pentatonic
**kern
*clefG2
*k[]
*M3/4
*MM110
!! Solo
{4e/
=1
8g/L
8a/J
4.cc\
8dd\
=2
8cc/L
8a/J
4g/}
8r
!! Chorus
{8ee\
=3
2dd\
4cc\
=4
8ee\
4.dd\}
8r
!! Solo
{8g/
=5
8cc\L
8cc\J
4.ee\}
{8dd\
=6
8cc/L
8a/J
4.g/}
8r
=7
!! Chorus
{4cc\
4.ee\
8dd\
=8
8dd\
4.cc\}
==
*-
